bernoullicharts/2014_add_x_0_1_mean.svg

<?xml version="1.0" encoding="utf-8" standalone="no"?>
<!DOCTYPE svg PUBLIC "-//W3C//DTD SVG 1.1//EN"
  "http://www.w3.org/Graphics/SVG/1.1/DTD/svg11.dtd">
<!-- Created with matplotlib (https://matplotlib.org/) -->
<svg height="345.6pt" version="1.1" viewBox="0 0 460.8 345.6" width="460.8pt" xmlns="http://www.w3.org/2000/svg" xmlns:xlink="http://www.w3.org/1999/xlink">
 <defs>
  <style type="text/css">
*{stroke-linecap:butt;stroke-linejoin:round;}
  </style>
 </defs>
 <g id="figure_1">
  <g id="patch_1">
   <path d="M 0 345.6 
L 460.8 345.6 
L 460.8 0 
L 0 0 
z
" style="fill:#ffffff;"/>
  </g>
  <g id="axes_1">
   <g id="patch_2">
    <path d="M 57.6 307.584 
L 414.72 307.584 
L 414.72 41.472 
L 57.6 41.472 
z
" style="fill:#ffffff;"/>
   </g>
   <g id="matplotlib.axis_1">
    <g id="xtick_1">
     <g id="line2d_1">
      <defs>
       <path d="M 0 0 
L 0 3.5 
" id="mf894b06009" style="stroke:#000000;stroke-width:0.8;"/>
      </defs>
      <g>
       <use style="stroke:#000000;stroke-width:0.8;" x="73.796607" xlink:href="#mf894b06009" y="307.584"/>
      </g>
     </g>
     <g id="text_1">
      <text style="font-family:DejaVu Sans;font-size:10px;font-style:normal;font-weight:normal;text-anchor:middle;" transform="rotate(-0, 73.796607, 322.182437)" x="73.796607" y="322.182437">0.0</text>
     </g>
    </g>
    <g id="xtick_2">
     <g id="line2d_2">
      <g>
       <use style="stroke:#000000;stroke-width:0.8;" x="146.037572" xlink:href="#mf894b06009" y="307.584"/>
      </g>
     </g>
     <g id="text_2">
      <text style="font-family:DejaVu Sans;font-size:10px;font-style:normal;font-weight:normal;text-anchor:middle;" transform="rotate(-0, 146.037572, 322.182437)" x="146.037572" y="322.182437">0.2</text>
     </g>
    </g>
    <g id="xtick_3">
     <g id="line2d_3">
      <g>
       <use style="stroke:#000000;stroke-width:0.8;" x="218.278537" xlink:href="#mf894b06009" y="307.584"/>
      </g>
     </g>
     <g id="text_3">
      <text style="font-family:DejaVu Sans;font-size:10px;font-style:normal;font-weight:normal;text-anchor:middle;" transform="rotate(-0, 218.278537, 322.182437)" x="218.278537" y="322.182437">0.4</text>
     </g>
    </g>
    <g id="xtick_4">
     <g id="line2d_4">
      <g>
       <use style="stroke:#000000;stroke-width:0.8;" x="290.519502" xlink:href="#mf894b06009" y="307.584"/>
      </g>
     </g>
     <g id="text_4">
      <text style="font-family:DejaVu Sans;font-size:10px;font-style:normal;font-weight:normal;text-anchor:middle;" transform="rotate(-0, 290.519502, 322.182437)" x="290.519502" y="322.182437">0.6</text>
     </g>
    </g>
    <g id="xtick_5">
     <g id="line2d_5">
      <g>
       <use style="stroke:#000000;stroke-width:0.8;" x="362.760467" xlink:href="#mf894b06009" y="307.584"/>
      </g>
     </g>
     <g id="text_5">
      <text style="font-family:DejaVu Sans;font-size:10px;font-style:normal;font-weight:normal;text-anchor:middle;" transform="rotate(-0, 362.760467, 322.182437)" x="362.760467" y="322.182437">0.8</text>
     </g>
    </g>
    <g id="text_6">
     <text style="font-family:DejaVu Sans;font-size:10px;font-style:normal;font-weight:normal;text-anchor:middle;" transform="rotate(-0, 236.16, 335.860562)" x="236.16" y="335.860562">Input Coin's Heads Probability (λ)</text>
    </g>
   </g>
   <g id="matplotlib.axis_2">
    <g id="ytick_1">
     <g id="line2d_6">
      <defs>
       <path d="M 0 0 
L -3.5 0 
" id="m614c058632" style="stroke:#000000;stroke-width:0.8;"/>
      </defs>
      <g>
       <use style="stroke:#000000;stroke-width:0.8;" x="57.6" xlink:href="#m614c058632" y="265.742979"/>
      </g>
     </g>
     <g id="text_7">
      <text style="font-family:DejaVu Sans;font-size:10px;font-style:normal;font-weight:normal;text-anchor:end;" transform="rotate(-0, 50.6, 269.542198)" x="50.6" y="269.542198">0.2</text>
     </g>
    </g>
    <g id="ytick_2">
     <g id="line2d_7">
      <g>
       <use style="stroke:#000000;stroke-width:0.8;" x="57.6" xlink:href="#m614c058632" y="212.62687"/>
      </g>
     </g>
     <g id="text_8">
      <text style="font-family:DejaVu Sans;font-size:10px;font-style:normal;font-weight:normal;text-anchor:end;" transform="rotate(-0, 50.6, 216.426089)" x="50.6" y="216.426089">0.4</text>
     </g>
    </g>
    <g id="ytick_3">
     <g id="line2d_8">
      <g>
       <use style="stroke:#000000;stroke-width:0.8;" x="57.6" xlink:href="#m614c058632" y="159.510762"/>
      </g>
     </g>
     <g id="text_9">
      <text style="font-family:DejaVu Sans;font-size:10px;font-style:normal;font-weight:normal;text-anchor:end;" transform="rotate(-0, 50.6, 163.30998)" x="50.6" y="163.30998">0.6</text>
     </g>
    </g>
    <g id="ytick_4">
     <g id="line2d_9">
      <g>
       <use style="stroke:#000000;stroke-width:0.8;" x="57.6" xlink:href="#m614c058632" y="106.394653"/>
      </g>
     </g>
     <g id="text_10">
      <text style="font-family:DejaVu Sans;font-size:10px;font-style:normal;font-weight:normal;text-anchor:end;" transform="rotate(-0, 50.6, 110.193872)" x="50.6" y="110.193872">0.8</text>
     </g>
    </g>
    <g id="ytick_5">
     <g id="line2d_10">
      <g>
       <use style="stroke:#000000;stroke-width:0.8;" x="57.6" xlink:href="#m614c058632" y="53.278544"/>
      </g>
     </g>
     <g id="text_11">
      <text style="font-family:DejaVu Sans;font-size:10px;font-style:normal;font-weight:normal;text-anchor:end;" transform="rotate(-0, 50.6, 57.077763)" x="50.6" y="57.077763">1.0</text>
     </g>
    </g>
    <g id="text_12">
     <text style="font-family:DejaVu Sans;font-size:10px;font-style:normal;font-weight:normal;text-anchor:middle;" transform="rotate(-90, 28.617187, 174.528)" x="28.617187" y="174.528">Simulated Mean / Function Value</text>
    </g>
   </g>
   <g id="line2d_11">
    <path clip-path="url(#p070462bb3b)" d="M 73.832727 292.274475 
L 77.480531 289.59238 
L 81.128335 286.910285 
L 84.776139 284.22819 
L 88.423943 281.546095 
L 92.071747 278.863999 
L 95.719551 276.181904 
L 99.367354 273.499809 
L 103.015158 270.817714 
L 106.662962 268.135618 
L 110.310766 265.453523 
L 113.95857 262.771428 
L 117.606374 260.089333 
L 121.254178 257.407237 
L 124.901982 254.725142 
L 128.549785 252.043047 
L 132.197589 249.360952 
L 135.845393 246.678857 
L 139.493197 243.996761 
L 143.141001 241.314666 
L 146.788805 238.632571 
L 150.436609 235.950476 
L 154.084413 233.26838 
L 157.732217 230.586285 
L 161.38002 227.90419 
L 165.027824 225.222095 
L 168.675628 222.539999 
L 172.323432 219.857904 
L 175.971236 217.175809 
L 179.61904 214.493714 
L 183.266844 211.811619 
L 186.914648 209.129523 
L 190.562451 206.447428 
L 194.210255 203.765333 
L 197.858059 201.083238 
L 201.505863 198.401142 
L 205.153667 195.719047 
L 208.801471 193.036952 
L 212.449275 190.354857 
L 216.097079 187.672761 
L 219.744883 184.990666 
L 223.392686 182.308571 
L 227.04049 179.626476 
L 230.688294 176.944381 
L 234.336098 174.262285 
L 237.983902 171.58019 
L 241.631706 168.898095 
L 245.27951 166.216 
L 248.927314 163.533904 
L 252.575117 160.851809 
L 256.222921 158.169714 
L 259.870725 155.487619 
L 263.518529 152.805523 
L 267.166333 150.123428 
L 270.814137 147.441333 
L 274.461941 144.759238 
L 278.109745 142.077143 
L 281.757549 139.395047 
L 285.405352 136.712952 
L 289.053156 134.030857 
L 292.70096 131.348762 
L 296.348764 128.666666 
L 299.996568 125.984571 
L 303.644372 123.302476 
L 307.292176 120.620381 
L 310.93998 117.938286 
L 314.587783 115.25619 
L 318.235587 112.574095 
L 321.883391 109.892 
L 325.531195 107.209905 
L 329.178999 104.527809 
L 332.826803 101.845714 
L 336.474607 99.163619 
L 340.122411 96.481524 
L 343.770215 93.799428 
L 347.418018 91.117333 
L 351.065822 88.435238 
L 354.713626 85.753143 
L 358.36143 83.071048 
L 362.009234 80.388952 
L 365.657038 77.706857 
L 369.304842 75.024762 
L 372.952646 72.342667 
L 376.600449 69.660571 
L 380.248253 66.978476 
L 383.896057 64.296381 
L 387.543861 61.614286 
L 391.191665 58.93219 
L 394.839469 56.250095 
L 398.487273 53.568 
" style="fill:none;stroke:#1f77b4;stroke-linecap:square;stroke-width:1.5;"/>
   </g>
   <g id="line2d_12">
    <path clip-path="url(#p070462bb3b)" d="M 73.832727 295.488 
L 77.480531 288.582906 
L 81.128335 283.802456 
L 84.776139 284.864778 
L 88.423943 286.458262 
L 92.071747 275.83504 
L 95.719551 277.428523 
L 99.367354 273.710395 
L 103.015158 275.303879 
L 106.662962 271.05459 
L 110.310766 263.087174 
L 113.95857 269.461107 
L 117.606374 260.962529 
L 121.254178 257.244402 
L 124.901982 257.775563 
L 128.549785 238.653764 
L 132.197589 249.276985 
M 139.493197 239.716086 
L 143.141001 232.810992 
L 146.788805 233.342153 
L 150.436609 237.06028 
L 154.084413 228.030542 
L 157.732217 237.06028 
L 161.38002 227.499381 
L 165.027824 234.404475 
L 168.675628 219.531964 
L 172.323432 212.62687 
L 175.971236 221.125448 
L 179.61904 208.377582 
L 183.266844 217.938481 
L 186.914648 219.000803 
L 190.562451 189.786944 
L 194.210255 197.223199 
L 197.858059 207.315259 
L 201.505863 200.410165 
L 205.153667 191.380427 
L 208.801471 190.318105 
L 212.449275 189.786944 
L 216.097079 186.599977 
L 219.744883 174.383272 
L 223.392686 186.068816 
L 227.04049 171.196305 
M 234.336098 181.819527 
L 237.983902 171.727467 
L 241.631706 171.196305 
L 245.27951 168.009339 
L 248.927314 162.166567 
L 252.575117 159.510762 
L 256.222921 168.5405 
L 259.870725 159.510762 
L 263.518529 154.730312 
L 267.166333 147.825218 
L 270.814137 146.762895 
L 274.461941 148.356379 
L 278.109745 140.920123 
L 281.757549 141.982446 
L 285.405352 131.890385 
L 289.053156 127.109935 
L 292.70096 138.795479 
M 303.644372 116.486713 
L 307.292176 120.204841 
L 310.93998 116.486713 
L 314.587783 113.830908 
L 318.235587 114.362069 
M 332.826803 97.364914 
M 347.418018 92.584465 
" style="fill:none;stroke:#ff7f0e;stroke-linecap:square;stroke-width:1.5;"/>
   </g>
   <g id="line2d_13">
    <path clip-path="url(#p070462bb3b)" d="M 73.832727 289.114067 
L 77.480531 293.894517 
L 81.128335 284.333617 
L 84.776139 286.458262 
L 88.423943 286.989423 
L 92.071747 287.520584 
L 95.719551 272.648073 
L 99.367354 280.61549 
L 103.015158 271.585751 
L 106.662962 266.805301 
L 110.310766 266.805301 
L 113.95857 251.40163 
L 117.606374 259.900207 
L 121.254178 254.057435 
L 124.901982 250.339308 
L 128.549785 256.713241 
L 132.197589 252.463952 
L 135.845393 255.650918 
L 139.493197 247.152341 
L 143.141001 238.122603 
L 146.788805 239.716086 
L 150.436609 231.748669 
L 154.084413 239.716086 
L 157.732217 226.96822 
L 161.38002 222.718931 
L 165.027824 225.905898 
L 168.675628 218.469642 
L 172.323432 217.40732 
L 175.971236 219.531964 
L 179.61904 216.876159 
L 183.266844 205.190615 
L 186.914648 207.315259 
L 190.562451 206.784098 
L 194.210255 206.784098 
L 197.858059 196.692038 
L 201.505863 208.377582 
L 205.153667 190.849266 
L 208.801471 194.036232 
L 212.449275 190.849266 
L 216.097079 188.724621 
L 219.744883 188.19346 
L 223.392686 183.413011 
L 227.04049 187.662299 
L 230.688294 176.507916 
L 234.336098 168.009339 
L 237.983902 168.009339 
L 241.631706 173.32095 
L 245.27951 168.009339 
L 248.927314 171.196305 
L 252.575117 161.635406 
L 256.222921 151.012184 
L 259.870725 160.573084 
L 263.518529 148.88754 
L 267.166333 146.762895 
L 270.814137 141.982446 
L 274.461941 147.294057 
L 278.109745 148.88754 
L 281.757549 135.608513 
L 285.405352 134.015029 
L 289.053156 132.421546 
L 292.70096 123.391808 
M 299.996568 126.047613 
L 303.644372 118.611358 
M 318.235587 112.237425 
" style="fill:none;stroke:#2ca02c;stroke-linecap:square;stroke-width:1.5;"/>
   </g>
   <g id="line2d_14">
    <path clip-path="url(#p070462bb3b)" d="M 146.788805 231.217508 
L 150.436609 238.653764 
M 157.732217 229.624025 
L 161.38002 241.309569 
L 165.027824 231.217508 
M 172.323432 222.18777 
L 175.971236 223.781253 
L 179.61904 216.344998 
L 183.266844 211.564548 
L 186.914648 216.876159 
L 190.562451 203.065971 
L 194.210255 209.439904 
L 197.858059 196.692038 
M 205.153667 195.629716 
L 208.801471 207.846421 
L 212.449275 193.505071 
L 216.097079 197.75436 
L 219.744883 195.098554 
L 223.392686 186.599977 
L 227.04049 192.442749 
L 230.688294 170.665144 
L 234.336098 178.1014 
L 237.983902 177.570239 
L 241.631706 170.665144 
L 245.27951 156.323795 
M 252.575117 155.792634 
" style="fill:none;stroke:#d62728;stroke-linecap:square;stroke-width:1.5;"/>
   </g>
   <g id="patch_3">
    <path d="M 57.6 307.584 
L 57.6 41.472 
" style="fill:none;stroke:#000000;stroke-linecap:square;stroke-linejoin:miter;stroke-width:0.8;"/>
   </g>
   <g id="patch_4">
    <path d="M 414.72 307.584 
L 414.72 41.472 
" style="fill:none;stroke:#000000;stroke-linecap:square;stroke-linejoin:miter;stroke-width:0.8;"/>
   </g>
   <g id="patch_5">
    <path d="M 57.6 307.584 
L 414.72 307.584 
" style="fill:none;stroke:#000000;stroke-linecap:square;stroke-linejoin:miter;stroke-width:0.8;"/>
   </g>
   <g id="patch_6">
    <path d="M 57.6 41.472 
L 414.72 41.472 
" style="fill:none;stroke:#000000;stroke-linecap:square;stroke-linejoin:miter;stroke-width:0.8;"/>
   </g>
   <g id="text_13">
    <text style="font-family:DejaVu Sans;font-size:12px;font-style:normal;font-weight:normal;" transform="translate(184.459688 22.034625)">Simulated Means</text>
    <text style="font-family:DejaVu Sans;font-size:12px;font-style:normal;font-weight:normal;" transform="translate(132.609375 35.472)">(Wasserstein Distances in Legend)</text>
   </g>
   <g id="legend_1">
    <g id="patch_7">
     <path d="M 64.6 108.1845 
L 343.39375 108.1845 
Q 345.39375 108.1845 345.39375 106.1845 
L 345.39375 48.472 
Q 345.39375 46.472 343.39375 46.472 
L 64.6 46.472 
Q 62.6 46.472 62.6 48.472 
L 62.6 106.1845 
Q 62.6 108.1845 64.6 108.1845 
z
" style="fill:#ffffff;opacity:0.8;stroke:#cccccc;stroke-linejoin:miter;"/>
    </g>
    <g id="line2d_15">
     <path d="M 66.6 54.570438 
L 86.6 54.570438 
" style="fill:none;stroke:#1f77b4;stroke-linecap:square;stroke-width:1.5;"/>
    </g>
    <g id="line2d_16"/>
    <g id="text_14">
     <text style="font-family:DejaVu Sans;font-size:10px;font-style:normal;font-weight:normal;text-anchor:start;" transform="rotate(-0, 94.6, 58.070438)" x="94.6" y="58.070438">x+0.1</text>
    </g>
    <g id="line2d_17">
     <path d="M 66.6 69.248563 
L 86.6 69.248563 
" style="fill:none;stroke:#ff7f0e;stroke-linecap:square;stroke-width:1.5;"/>
    </g>
    <g id="line2d_18"/>
    <g id="text_15">
     <text style="font-family:DejaVu Sans;font-size:10px;font-style:normal;font-weight:normal;text-anchor:start;" transform="rotate(-0, 94.6, 72.748563)" x="94.6" y="72.748563">Simul. Mean of 2014 Add. x+0.1 (WD=0.008404)</text>
    </g>
    <g id="line2d_19">
     <path d="M 66.6 83.926688 
L 86.6 83.926688 
" style="fill:none;stroke:#2ca02c;stroke-linecap:square;stroke-width:1.5;"/>
    </g>
    <g id="line2d_20"/>
    <g id="text_16">
     <text style="font-family:DejaVu Sans;font-size:10px;font-style:normal;font-weight:normal;text-anchor:start;" transform="rotate(-0, 94.6, 87.426688)" x="94.6" y="87.426688">Simul. Mean of 2016 Add. x+0.1 (WD=0.008308)</text>
    </g>
    <g id="line2d_21">
     <path d="M 66.6 98.604813 
L 86.6 98.604813 
" style="fill:none;stroke:#d62728;stroke-linecap:square;stroke-width:1.5;"/>
    </g>
    <g id="line2d_22"/>
    <g id="text_17">
     <text style="font-family:DejaVu Sans;font-size:10px;font-style:normal;font-weight:normal;text-anchor:start;" transform="rotate(-0, 94.6, 102.104813)" x="94.6" y="102.104813">Simul. Mean of 2019 Add. x+0.1 (WD=0.015522)</text>
    </g>
   </g>
  </g>
 </g>
 <defs>
  <clipPath id="p070462bb3b">
   <rect height="266.112" width="357.12" x="57.6" y="41.472"/>
  </clipPath>
 </defs>
</svg>

<svg height="460.8" viewBox="0 0 460.8 345.6" width="614.4" xmlns="http://www.w3.org/2000/svg" xmlns:xlink="http://www.w3.org/1999/xlink"><defs><style>*{stroke-linecap:butt;stroke-linejoin:round}</style></defs><g id="figure_1"><path d="M0 345.6h460.8V0H0z" fill="#fff" id="patch_1"/><g id="axes_1"><path d="M57.6 307.584h357.12V41.472H57.6z" fill="#fff" id="patch_2"/><g id="matplotlib.axis_1"><g id="xtick_1"><g id="line2d_1"><defs><path d="M0 0v3.5" id="mf894b06009" stroke="#000" stroke-width=".8"/></defs><use x="73.797" xlink:href="#mf894b06009" y="307.584" stroke="#000" stroke-width=".8"/></g><text x="73.797" y="322.182" font-family="DejaVu Sans" font-size="10" font-weight="400" text-anchor="middle" id="text_1">0.0</text></g><g id="xtick_2"><use x="146.038" xlink:href="#mf894b06009" y="307.584" stroke="#000" stroke-width=".8" id="line2d_2"/><text x="146.038" y="322.182" font-family="DejaVu Sans" font-size="10" font-weight="400" text-anchor="middle" id="text_2">0.2</text></g><g id="xtick_3"><use x="218.279" xlink:href="#mf894b06009" y="307.584" stroke="#000" stroke-width=".8" id="line2d_3"/><text x="218.279" y="322.182" font-family="DejaVu Sans" font-size="10" font-weight="400" text-anchor="middle" id="text_3">0.4</text></g><g id="xtick_4"><use x="290.52" xlink:href="#mf894b06009" y="307.584" stroke="#000" stroke-width=".8" id="line2d_4"/><text x="290.52" y="322.182" font-family="DejaVu Sans" font-size="10" font-weight="400" text-anchor="middle" id="text_4">0.6</text></g><g id="xtick_5"><use x="362.76" xlink:href="#mf894b06009" y="307.584" stroke="#000" stroke-width=".8" id="line2d_5"/><text x="362.76" y="322.182" font-family="DejaVu Sans" font-size="10" font-weight="400" text-anchor="middle" id="text_5">0.8</text></g><text x="236.16" y="335.861" font-family="DejaVu Sans" font-size="10" font-weight="400" text-anchor="middle" id="text_6">Input Coin&apos;s Heads Probability (λ)</text></g><g id="matplotlib.axis_2"><g id="ytick_1"><g id="line2d_6"><defs><path d="M0 0h-3.5" id="m614c058632" stroke="#000" stroke-width=".8"/></defs><use x="57.6" xlink:href="#m614c058632" y="265.743" stroke="#000" stroke-width=".8"/></g><text x="50.6" y="269.542" font-family="DejaVu Sans" font-size="10" font-weight="400" text-anchor="end" id="text_7">0.2</text></g><g id="ytick_2"><use x="57.6" xlink:href="#m614c058632" y="212.627" stroke="#000" stroke-width=".8" id="line2d_7"/><text x="50.6" y="216.426" font-family="DejaVu Sans" font-size="10" font-weight="400" text-anchor="end" id="text_8">0.4</text></g><g id="ytick_3"><use x="57.6" xlink:href="#m614c058632" y="159.511" stroke="#000" stroke-width=".8" id="line2d_8"/><text x="50.6" y="163.31" font-family="DejaVu Sans" font-size="10" font-weight="400" text-anchor="end" id="text_9">0.6</text></g><g id="ytick_4"><use x="57.6" xlink:href="#m614c058632" y="106.395" stroke="#000" stroke-width=".8" id="line2d_9"/><text x="50.6" y="110.194" font-family="DejaVu Sans" font-size="10" font-weight="400" text-anchor="end" id="text_10">0.8</text></g><g id="ytick_5"><use x="57.6" xlink:href="#m614c058632" y="53.279" stroke="#000" stroke-width=".8" id="line2d_10"/><text x="50.6" y="57.078" font-family="DejaVu Sans" font-size="10" font-weight="400" text-anchor="end" id="text_11">1.0</text></g><text transform="rotate(-90 28.617 174.528)" x="28.617" y="174.528" font-family="DejaVu Sans" font-size="10" font-weight="400" text-anchor="middle" id="text_12">Simulated Mean / Function Value</text></g><path clip-path="url(#p070462bb3b)" d="M73.833 292.274l3.648-2.682 3.647-2.682 3.648-2.682 3.648-2.682 3.648-2.682 3.648-2.682 3.647-2.682 3.648-2.682 3.648-2.682 3.648-2.682 3.648-2.683 3.647-2.682 3.648-2.682 3.648-2.682 3.648-2.682 3.648-2.682 3.647-2.682 3.648-2.682 3.648-2.682 3.648-2.682 3.648-2.683 3.647-2.682 3.648-2.682 3.648-2.682 3.648-2.682 3.648-2.682 3.647-2.682 3.648-2.682 3.648-2.682 3.648-2.682 3.648-2.682 3.647-2.683 3.648-2.682 3.648-2.682 3.648-2.682 3.648-2.682 3.647-2.682 3.648-2.682 3.648-2.682 3.648-2.682 3.648-2.682 3.647-2.683 3.648-2.682 3.648-2.682 3.648-2.682 3.648-2.682 3.648-2.682 3.647-2.682 3.648-2.682 3.648-2.682 3.648-2.682 3.648-2.682 3.647-2.683 3.648-2.682 3.648-2.682 3.648-2.682 3.648-2.682 3.647-2.682 3.648-2.682 3.648-2.682 3.648-2.682 3.648-2.682 3.647-2.683 3.648-2.682 3.648-2.682 3.648-2.682 3.648-2.682 3.647-2.682 3.648-2.682 3.648-2.682 3.648-2.682 3.648-2.682 3.647-2.682 3.648-2.683 3.648-2.682 3.648-2.682 3.648-2.682 3.647-2.682 3.648-2.682 3.648-2.682 3.648-2.682 3.648-2.682 3.647-2.682 3.648-2.683 3.648-2.682 3.648-2.682 3.648-2.682 3.647-2.682 3.648-2.682" fill="none" stroke="#1f77b4" stroke-linecap="square" stroke-width="1.5" id="line2d_11"/><path clip-path="url(#p070462bb3b)" d="M73.833 295.488l3.648-6.905 3.647-4.78 3.648 1.062 3.648 1.593 3.648-10.623 3.648 1.594 3.647-3.719 3.648 1.594 3.648-4.25 3.648-7.967 3.648 6.374 3.647-8.498 3.648-3.719 3.648.532 3.648-19.122 3.648 10.623m7.295-9.56l3.648-6.906 3.648.531 3.648 3.718 3.647-9.03 3.648 9.03 3.648-9.56 3.648 6.904 3.648-14.872 3.647-6.905 3.648 8.498 3.648-12.747 3.648 9.56 3.648 1.063 3.647-29.214 3.648 7.436 3.648 10.092 3.648-6.905 3.648-9.03 3.647-1.062 3.648-.531 3.648-3.187 3.648-12.217 3.648 11.686 3.647-14.873m7.296 10.624l3.648-10.093 3.648-.53 3.648-3.188 3.647-5.842 3.648-2.656 3.648 9.03 3.648-9.03 3.648-4.78 3.647-6.906 3.648-1.062 3.648 1.593 3.648-7.436 3.648 1.062 3.647-10.092 3.648-4.78 3.648 11.685m10.943-22.308l3.648 3.718 3.648-3.718 3.648-2.656 3.648.531M347.418 92.585" fill="none" stroke="#ff7f0e" stroke-linecap="square" stroke-width="1.5" id="line2d_12"/><path clip-path="url(#p070462bb3b)" d="M73.833 289.114l3.648 4.78 3.647-9.56 3.648 2.124 3.648.531 3.648.532 3.648-14.873 3.647 7.967 3.648-9.03 3.648-4.78h3.648l3.648-15.403 3.647 8.498 3.648-5.843 3.648-3.718 3.648 6.374 3.648-4.249 3.647 3.187 3.648-8.499 3.648-9.03 3.648 1.594 3.648-7.967 3.647 7.967 3.648-12.748 3.648-4.25 3.648 3.188 3.648-7.436 3.647-1.063 3.648 2.125 3.648-2.656 3.648-11.685 3.648 2.124 3.647-.53h3.648l3.648-10.093 3.648 11.686 3.648-17.529 3.647 3.187 3.648-3.187 3.648-2.124 3.648-.532 3.648-4.78 3.647 4.25 3.648-11.155 3.648-8.499h3.648l3.648 5.312 3.648-5.312 3.647 3.187 3.648-9.56 3.648-10.624 3.648 9.561 3.648-11.685 3.647-2.125 3.648-4.78 3.648 5.311 3.648 1.594 3.648-13.28 3.647-1.593 3.648-1.593 3.648-9.03m7.296 2.656l3.647-7.437m14.592-6.374" fill="none" stroke="#2ca02c" stroke-linecap="square" stroke-width="1.5" id="line2d_13"/><path clip-path="url(#p070462bb3b)" d="M146.789 231.218l3.648 7.436m7.295-9.03l3.648 11.686 3.648-10.092m7.295-9.03l3.648 1.593 3.648-7.436 3.648-4.78 3.648 5.311 3.647-13.81 3.648 6.374 3.648-12.748m7.296-1.062l3.647 12.216 3.648-14.34 3.648 4.248 3.648-2.655 3.648-8.499 3.647 5.843 3.648-21.778 3.648 7.436 3.648-.53 3.648-6.906 3.648-14.341m7.295-.531" fill="none" stroke="#d62728" stroke-linecap="square" stroke-width="1.5" id="line2d_14"/><path d="M57.6 307.584V41.472" fill="none" stroke="#000" stroke-linecap="square" stroke-width=".8" id="patch_3"/><path d="M414.72 307.584V41.472" fill="none" stroke="#000" stroke-linecap="square" stroke-width=".8" id="patch_4"/><path d="M57.6 307.584h357.12" fill="none" stroke="#000" stroke-linecap="square" stroke-width=".8" id="patch_5"/><path d="M57.6 41.472h357.12" fill="none" stroke="#000" stroke-linecap="square" stroke-width=".8" id="patch_6"/><g id="text_13" font-family="DejaVu Sans" font-size="12" font-weight="400"><text transform="translate(184.46 22.035)">Simulated Means</text><text transform="translate(132.61 35.472)">(Wasserstein Distances in Legend)</text></g><g id="legend_1"><path d="M64.6 108.184h278.794q2 0 2-2V48.472q0-2-2-2H64.6q-2 0-2 2v57.712q0 2 2 2z" fill="#fff" opacity=".8" stroke="#ccc" id="patch_7"/><path d="M66.6 54.57h20" fill="none" stroke="#1f77b4" stroke-linecap="square" stroke-width="1.5" id="line2d_15"/><text x="94.6" y="58.07" font-family="DejaVu Sans" font-size="10" font-weight="400" id="text_14">x+0.1</text><path d="M66.6 69.249h20" fill="none" stroke="#ff7f0e" stroke-linecap="square" stroke-width="1.5" id="line2d_17"/><text x="94.6" y="72.749" font-family="DejaVu Sans" font-size="10" font-weight="400" id="text_15">Simul. Mean of 2014 Add. x+0.1 (WD=0.008404)</text><path d="M66.6 83.927h20" fill="none" stroke="#2ca02c" stroke-linecap="square" stroke-width="1.5" id="line2d_19"/><text x="94.6" y="87.427" font-family="DejaVu Sans" font-size="10" font-weight="400" id="text_16">Simul. Mean of 2016 Add. x+0.1 (WD=0.008308)</text><path d="M66.6 98.605h20" fill="none" stroke="#d62728" stroke-linecap="square" stroke-width="1.5" id="line2d_21"/><text x="94.6" y="102.105" font-family="DejaVu Sans" font-size="10" font-weight="400" id="text_17">Simul. Mean of 2019 Add. x+0.1 (WD=0.015522)</text></g></g></g><defs><clipPath id="p070462bb3b"><path d="M57.6 41.472h357.12v266.112H57.6z"/></clipPath></defs></svg>
